X:276
T:Braes of Angus,The. RH.276
R:reel
S:Rev.R.Harrison’s MS,c1815,Cumbria
N:Key was marked as G. PJH.
O:England
A:Temple Sowerby,Cumbria
Z:vmp.Simon Wilson. Review PJH, 2008.
M:2/4
L:1/8
Q:1/4=150
K:Em
EEGE|F2d2|AGFE|DEFD|\
EEGE|F2e2|dBdF|EEE2:|!
|:e>feB|eeg2|(a/g/f/e/) de|d>efd|\
e>feB|eeg2|(a/g/f/e/) (d/e/f)|eee>f|!
e>feB|eeg2|(a/g/f/e/) de|d>efd|\
egde|BdAd|GAFe|EEE2:|

